X:1
T:Title
%%score { ( 1 3 ) | 2 }
L:1/8
Q:1/4=100
M:4/4
K:G
V:1 treble nm="Grand Piano"
V:3 treble 
V:2 treble 
V:1
 G2 D2 G>A B>[Ac] | [GB]4 [FA]4 | [FA]2 D2 [FA]>[GB] [Ac]>[Ac] | B6 z2 | d2 B2 d>c B>A | [EG]4 E4 | %6
w: John~R.~Sweney * * * * *||||||
 D>D [Dc]>[Dc] [DB]2 [CDA]2 |[M:3/4] [B,DG]6 |[M:1/4] [GB][Ac] |[M:4/4] [Bd]6 z2 | [Ac]6 z2 | %11
w: |||||
 [Ac]2 [Ac]>[Ac] [Bd]2 [Ac]2 |[M:3/4] B6 |[M:1/4] B>A |[M:4/4] [B,G]2 [B,G]>[B,G] [DF]2 [CE]2 | %15
w: ||||
 D4 G2 G>B | [Fd]2 [FA]>[Ac] [GB]2 [CDA]2 |[M:3/4] [B,DG]6 |] %18
w: |||
V:2
 [G,B,D]2 [G,B,]2 [G,B,D]>[G,CD] [G,DG]>[K:bass][G,D] | [D,D]4 [D,D]4 | %2
 [D,D]2 [F,A,]2 [D,D]>[D,D] [D,D]>[D,D] | [G,DG]6 z2 | %4
 [G,B,G]2 [G,DG]2 [G,B,G]>[G,EG] [G,DG]>[K:bass][G,B,D] | [C,C]4 [C,G,C]4 | %6
 [B,,G,]>[B,,G,] [A,,F,]>[A,,F,] [D,G,]2 D,2 |[M:3/4] G,,6 |[M:1/4] [G,D]2 | %9
[M:4/4] [G,D]2 G,>G, G,2 G,>G, | D,2 D,2 D,2 [D,D]>[D,D] | [D,D]2 [D,D]>[D,D] [D,D]2 [D,D]2 | %12
[M:3/4][K:treble] [G,DG]6 |[M:1/4] [G,D]>[K:bass][G,C] | %14
[M:4/4] [G,,D,]2 [G,,D,]>[G,,D,] [G,,G,]2 [G,,G,]2 | [G,B,]4 [G,B,D]2 [G,B,D]>[G,D] | %16
 [D,A,]2 [D,D]>[D,D] [D,D]2 D,2 |[M:3/4] G,,6 |] %18
V:3
 x8 | x8 | x8 | x8 | x8 | x8 | x8 |[M:3/4] x6 |[M:1/4] x2 |[M:4/4] z2 D>D D2 [DAc]>[DGB] | %10
 D2 D2 D2 [FA]>[GB] | x8 |[M:3/4] x6 |[M:1/4] x2 |[M:4/4] x8 | x8 | x8 |[M:3/4] x6 |] %18

